Sources/FrostedUI/Resources/Icons.xcassets/sadFaceFilled32.imageset/sad-face-filled-32.svg

<svg width="32" height="32" viewBox="0 0 32 32" fill="none" xmlns="http://www.w3.org/2000/svg" data-fui-icon="true">
  <g clip-path="url(#clip0_6288_64)">
    <path
      d="M16 0C24.9142 1.6867e-05 32 7.08581 32 16C32 24.9142 24.9142 32 16 32C7.08584 32 4.04299e-06 24.9142 0 16C0 7.0858 7.08584 1.71829e-05 16 0ZM16 20.25C13.794 20.25 12.2507 21.083 11.2617 21.9307C10.7713 22.351 10.4195 22.772 10.1885 23.0918C10.0728 23.252 9.98678 23.3881 9.92773 23.4873C9.89829 23.5368 9.87569 23.5775 9.85938 23.6074C9.85127 23.6223 9.84481 23.635 9.83984 23.6445C9.83735 23.6493 9.83471 23.6539 9.83301 23.6572L9.83008 23.6631L9.8291 23.6641C9.82931 23.6646 9.84423 23.6721 10.4043 23.9521L9.8291 23.665C9.64416 24.0354 9.79469 24.4857 10.165 24.6709C10.5343 24.8553 10.9827 24.7067 11.1689 24.3389L11.1699 24.3379V24.335H11.1709C11.1721 24.3326 11.1744 24.3295 11.1768 24.3252C11.1843 24.3113 11.1975 24.2872 11.2168 24.2549C11.2554 24.19 11.3179 24.0917 11.4053 23.9707C11.5805 23.7281 11.8538 23.3989 12.2383 23.0693C12.9993 22.4171 14.2061 21.75 16 21.75C17.7939 21.75 19.0007 22.4171 19.7617 23.0693C20.1462 23.3989 20.4195 23.7281 20.5947 23.9707C20.6821 24.0917 20.7446 24.19 20.7832 24.2549C20.8025 24.2872 20.8157 24.3113 20.8232 24.3252C20.8253 24.3291 20.8279 24.3317 20.8291 24.334V24.3359L20.8301 24.3379L20.8311 24.3389C21.0173 24.7067 21.4657 24.8553 21.835 24.6709C22.2053 24.4857 22.3558 24.0354 22.1709 23.665L21.5957 23.9521C22.1558 23.6721 22.1707 23.6646 22.1709 23.6641L22.1699 23.6631L22.167 23.6572C22.1653 23.6539 22.1626 23.6493 22.1602 23.6445C22.1552 23.635 22.1487 23.6223 22.1406 23.6074C22.1243 23.5775 22.1017 23.5368 22.0723 23.4873C22.0132 23.3881 21.9272 23.252 21.8115 23.0918C21.5805 22.772 21.2287 22.351 20.7383 21.9307C19.7493 21.083 18.206 20.25 16 20.25ZM9.375 13.4004C8.61561 13.4004 8 14.016 8 14.7754C8.00021 15.5346 8.61574 16.1504 9.375 16.1504C10.1343 16.1504 10.7498 15.5346 10.75 14.7754C10.75 14.016 10.1344 13.4004 9.375 13.4004ZM22.625 13.4004C21.8656 13.4004 21.25 14.016 21.25 14.7754C21.2502 15.5346 21.8657 16.1504 22.625 16.1504C23.3843 16.1504 23.9998 15.5346 24 14.7754C24 14.016 23.3844 13.4004 22.625 13.4004Z"
      fill="currentColor"
    />
  </g>
  <defs>
    <clipPath id="clip0_6288_64"><path fill="currentColor" d="M0 0H32V32H0z" /></clipPath>
  </defs>
</svg>

<svg xmlns="http://www.w3.org/2000/svg" width="32" height="32" fill="none" data-fui-icon="true" viewBox="0 0 32 32"><g clip-path="url(#a)"><path fill="currentColor" d="M16 0c8.914 0 16 7.086 16 16s-7.086 16-16 16S0 24.914 0 16 7.086 0 16 0m0 20.25c-2.206 0-3.75.833-4.738 1.68-.49.421-.843.842-1.074 1.162a5 5 0 0 0-.329.515l-.02.038-.006.012-.003.006v.001l.574.288-.575-.287a.75.75 0 0 0 1.34.674v-.004h.002l.006-.01q.01-.021.04-.07a4 4 0 0 1 .188-.284c.176-.243.449-.572.833-.902C13 22.417 14.206 21.75 16 21.75s3 .667 3.762 1.32c.384.329.657.658.833.9a4 4 0 0 1 .228.355l.006.009v.002l.001.002h.001a.75.75 0 0 0 1.34-.673l-.575.287.575-.288h-.001l-.003-.007-.007-.012-.02-.038-.068-.12c-.059-.099-.145-.235-.26-.395a6.7 6.7 0 0 0-1.074-1.161c-.989-.848-2.532-1.681-4.738-1.681M9.375 13.4a1.375 1.375 0 1 0 0 2.75 1.375 1.375 0 0 0 0-2.75m13.25 0a1.375 1.375 0 1 0 0 2.75 1.375 1.375 0 0 0 0-2.75"/></g><defs><clipPath id="a"><path fill="currentColor" d="M0 0h32v32H0z"/></clipPath></defs></svg>
